static/icons/favicon.svg

<svg xmlns="http://www.w3.org/2000/svg" version="1.1" xmlns:xlink="http://www.w3.org/1999/xlink" width="1000" height="1000"><g clip-path="url(#SvgjsClipPath1678)"><rect width="1000" height="1000" fill="#753600"></rect><g transform="matrix(0.9765625,0,0,0.9765625,0,0)"><svg xmlns="http://www.w3.org/2000/svg" version="1.1" xmlns:xlink="http://www.w3.org/1999/xlink" width="1024" height="1024"><svg width="1024" height="1024" viewBox="0 0 1024 1024" version="1.1" id="svg3" sodipodi:docname="9b2689f9-9c37-475a-8be9-a169d13ee12b.svg" xmlns:inkscape="http://www.inkscape.org/namespaces/inkscape" xmlns:sodipodi="http://sodipodi.sourceforge.net/DTD/sodipodi-0.dtd" xmlns="http://www.w3.org/2000/svg" xmlns:svg="http://www.w3.org/2000/svg">
  <sodipodi:namedview id="namedview3" pagecolor="#ffffff" bordercolor="#000000" borderopacity="0.25" inkscape:showpageshadow="2" inkscape:pageopacity="0.0" inkscape:pagecheckerboard="0" inkscape:deskcolor="#d1d1d1"></sodipodi:namedview>
  <defs id="defs2">
    <linearGradient id="a" gradientUnits="userSpaceOnUse" x1="762.699" y1="786.981" x2="259.675" y2="235.268">
      <stop offset="0" stop-color="#FA8449" id="stop1"></stop>
      <stop offset="1" stop-color="#FFB056" id="stop2"></stop>
    </linearGradient>
  <clipPath id="SvgjsClipPath1678"><rect width="1000" height="1000" x="0" y="0" rx="400" ry="400"></rect></clipPath></defs>
  <path fill="url(#a)" d="M337.299 205.21c5.027-.738 13.601-.346 18.815-.343l34.233.066 105.966.056 129.153-.008 35.105-.041c12.322-.014 23.554-.297 35.794 1.688 53.111 8.689 98.525 46.538 116.158 97.467 10.037 28.994 7.527 58.275 7.526 88.457l-.015 109.097.006 120.5.018 35.551c.001 13.343.228 23.856-1.849 37.196-8.409 53.985-47.946 99.711-99.46 117.2-10.626 3.607-21.997 5.344-33.138 6.789-26.276 1.289-56.573.535-83.176.524l-137.507.007-80.165.06c-20.41.005-43.127 1.072-62.916-2.777-61.955-11.944-112.962-67.914-118.43-130.932-1.868-21.536-.91-45.612-.91-67.475l-.005-118.109-.014-104.932c-.005-22.093-1.562-49.337 2.44-70.77 12.419-66.522 65.557-112.782 132.371-119.271m268.92 463.724c-5.863 11.247-10.449 18.829-21.565 25.785-13.524 8.462-27.912 6.837-43.279 6.825l.113-219.419c-.096-52.718-.527-106.439.055-159.101 20.216-.184 35.457-1.732 51.432 13.612 9.318 8.95 13.883 21.05 13.764 33.929-.297 32.105-.105 64.242-.189 96.361l.034 29.411c.018 4.92-.156 11.725.255 16.524l-.688.082c-12.881 1.451-32.238-3.879-41.433 6.302-9.839 10.896 3.402 25.219 9.654 34.615l19.41 29.196c10.176 15.333 20.246 30.744 30.392 46.079 5.487 8.293 17.065 8.923 23.463 1.438 3.824-4.474 7.115-9.907 10.352-14.851l13.936-21.203 21.913-33.306c5.635-8.462 20.223-25.741 17.608-35.856-4.387-16.969-26.387-11.349-39.277-12.309-2.084-.16-5.126.046-7.177.153.401-30.945.154-62.27.145-93.241l.019-31.256c.03-14.608.572-28.011-3.003-42.347-4.496-18.029-12.95-34.184-25.916-47.463-21.721-22.244-47.188-33.556-78.232-33.844l-68.888-.046c-5.065-.003-27.08-.316-30.254.218-30.901 2.728-55.442 15.031-75.635 38.786-26.523 31.201-23.21 62.723-23.214 100.45l.005 91.229.011 111.943-.019 34.161c-.002 8.418-.229 16.934.561 25.323 2.515 26.708 16.638 51.459 37.306 68.333 11.924 9.735 26.133 16.978 41.108 20.598a121.3 121.3 0 0 0 20.219 3.14c19.149 1.313 38.855.381 58.088.371 17.103-.009 35.087 1.138 52.087-.715 28.999-3.161 55.32-17.663 73.57-40.414 8.712-10.86 14.657-23.272 18.451-36.617.896-3.153 2.193-7.133 1.906-10.437-.053-.615-.194-1.591-.733-1.954-2.616-1.762-50.329-1.195-56.355-.485" id="path2"></path>
  <path fill="#FDA051" d="M459.357 323.176c5.894-.523 16.257-.233 22.591-.311l.054 378.648c-15.312.09-26.612 1.745-40.422-4.881-16.16-7.911-23.772-24.043-23.84-41.354-.06-15.198-.007-30.307.049-45.501l.122-96.872-.009-97.16-.158-32.965c-.012-21.441-.204-36.751 18.765-51.103 7.317-5.536 13.863-7.32 22.848-8.501" id="path3"></path>
</svg></svg></g></g></svg>

<svg xmlns="http://www.w3.org/2000/svg" version="1.1" xmlns:xlink="http://www.w3.org/1999/xlink" width="1024" height="1024"><svg xmlns="http://www.w3.org/2000/svg" xmlns:xlink="http://www.w3.org/1999/xlink" width="1024" height="1024" viewBox="0 0 1024 1024"><defs><linearGradient id="SvgjsLinearGradient1006" gradientUnits="userSpaceOnUse" x1="762.69861" y1="786.98053" x2="259.67453" y2="235.2675"><stop offset="0" stop-color="#FA8449"></stop><stop offset="1" stop-color="#FFB056"></stop></linearGradient></defs><path fill="url(#gradient_0)" d="M337.299 205.21C342.326 204.472 350.9 204.864 356.114 204.867L390.347 204.933L496.313 204.989L625.466 204.981L660.571 204.94C672.893 204.926 684.125 204.643 696.365 206.628C749.476 215.317 794.89 253.166 812.523 304.095C822.56 333.089 820.05 362.37 820.049 392.552L820.034 501.649L820.04 622.149L820.058 657.7C820.059 671.043 820.286 681.556 818.209 694.896C809.8 748.881 770.263 794.607 718.749 812.096C708.123 815.703 696.752 817.44 685.611 818.885C659.335 820.174 629.038 819.42 602.435 819.409L464.928 819.416L384.763 819.476C364.353 819.481 341.636 820.548 321.847 816.699C259.892 804.755 208.885 748.785 203.417 685.767C201.549 664.231 202.507 640.155 202.507 618.292L202.502 500.183L202.488 395.251C202.483 373.158 200.926 345.914 204.928 324.481C217.347 257.959 270.485 211.699 337.299 205.21ZM606.219 668.934C600.356 680.181 595.77 687.763 584.654 694.719C571.13 703.181 556.742 701.556 541.375 701.544L541.488 482.125C541.392 429.407 540.961 375.686 541.543 323.024C561.759 322.84 577 321.292 592.975 336.636C602.293 345.586 606.858 357.686 606.739 370.565C606.442 402.67 606.634 434.807 606.55 466.926L606.584 496.337C606.602 501.257 606.428 508.062 606.839 512.861L606.151 512.943C593.27 514.394 573.913 509.064 564.718 519.245C554.879 530.141 568.12 544.464 574.372 553.86L593.782 583.056C603.958 598.389 614.028 613.8 624.174 629.135C629.661 637.428 641.239 638.058 647.637 630.573C651.461 626.099 654.752 620.666 657.989 615.722L671.925 594.519L693.838 561.213C699.473 552.751 714.061 535.472 711.446 525.357C707.059 508.388 685.059 514.008 672.169 513.048C670.085 512.888 667.043 513.094 664.992 513.201C665.393 482.256 665.146 450.931 665.137 419.96L665.156 388.704C665.186 374.096 665.728 360.693 662.153 346.357C657.657 328.328 649.203 312.173 636.237 298.894C614.516 276.65 589.049 265.338 558.005 265.05L489.117 265.004C484.052 265.001 462.037 264.688 458.863 265.222C427.962 267.95 403.421 280.253 383.228 304.008C356.705 335.209 360.018 366.731 360.014 404.458L360.019 495.687L360.03 607.63L360.011 641.791C360.009 650.209 359.782 658.725 360.572 667.114C363.087 693.822 377.21 718.573 397.878 735.447C409.802 745.182 424.011 752.425 438.986 756.045C445.638 757.653 452.378 758.716 459.205 759.185C478.354 760.498 498.06 759.566 517.293 759.556C534.396 759.547 552.38 760.694 569.38 758.841C598.379 755.68 624.7 741.178 642.95 718.427C651.662 707.567 657.607 695.155 661.401 681.81C662.297 678.657 663.594 674.677 663.307 671.373C663.254 670.758 663.113 669.782 662.574 669.419C659.958 667.657 612.245 668.224 606.219 668.934Z"></path><path fill="#FDA051" d="M459.357 323.176C465.251 322.653 475.614 322.943 481.948 322.865L482.002 701.513C466.69 701.603 455.39 703.258 441.58 696.632C425.42 688.721 417.808 672.589 417.74 655.278C417.68 640.08 417.733 624.971 417.789 609.777L417.911 512.905L417.902 415.745L417.744 382.78C417.732 361.339 417.54 346.029 436.509 331.677C443.826 326.141 450.372 324.357 459.357 323.176Z"></path></svg><style>@media (prefers-color-scheme: light) { :root { filter: none; } }
@media (prefers-color-scheme: dark) { :root { filter: none; } }
</style></svg>
